public/images/sponsors/Adobe.svg

<svg fill="none" height="86" viewBox="0 0 172 86" width="172" xmlns="http://www.w3.org/2000/svg"><g fill="#fa0c00"><path d="m33.8733 26h-14.8733v35z"/><path d="m44.3379 26h14.8539v35z"/><path d="m39.1051 38.8997 9.4666 22.1002h-6.2109l-2.8293-7.0362h-6.928z"/><path d="m83.4558 48.2577 1.7537 4.9482c.0582.1239.1454.1812.3004.1812h3.372c.1841 0 .2131-.0859.1841-.267l-6.9668-19.0398c-.029-.1525-.0581-.1811-.2131-.1811h-4.1859c-.1163 0-.1841.0858-.1841.2097-.0581 1.0011-.1453 1.3062-.2713 1.6018l-6.2109 17.3808c-.0291.2097.0387.2956.2131.2956h3.0134c.1842 0 .2714-.0573.3392-.2384l1.6569-4.891zm-6.2401-3.2321c.9108-2.7077 2.1123-6.1782 2.5968-8.1613h.0291c.6007 2.0785 2.0154 6.1972 2.6549 8.1613z"/><path d="m98.0224 53.6826c1.8119 0 3.7406-.3242 5.6976-1.1537.155-.0572.184-.1239.184-.2669-.058-.5339-.126-1.3062-.126-1.8973v-17.9243c0-.1144 0-.1716-.145-.1716h-3.285c-.126 0-.184.0572-.184.2098v6.0732c-.5138-.0572-.8723-.0858-1.2986-.0858-5.3002 0-8.5558 3.4419-8.5558 7.7418 0 4.9864 3.3428 7.4748 7.7128 7.4748zm2.1416-3.3179c-.5429.1716-1.1436.2383-1.754.2383-2.403 0-4.37-1.3347-4.37-4.5764 0-2.8698 2.0251-4.5668 4.7091-4.5668.5426 0 1.0174.0572 1.4149.2097z"/><path d="m114.383 38.4661c-4.525 0-7.325 3.4132-7.325 7.6273 0 3.766 2.228 7.5892 7.257 7.5892 4.254 0 7.238-3.0795 7.238-7.6845 0-4.0616-2.529-7.532-7.17-7.532zm-.184 2.9937c2.558 0 3.643 2.1643 3.643 4.6336 0 3.051-1.599 4.5669-3.459 4.5669-2.297 0-3.653-1.8973-3.653-4.6336 0-2.8126 1.444-4.5669 3.469-4.5669z"/><path d="m124.949 32.2688c-.126 0-.214.0572-.214.2098v20.2887c0 .0858.088.2384.214.267 1.443.4385 2.955.6483 4.515.6483 4.467 0 8.808-2.7268 8.808-8.2185 0-3.9757-2.772-6.9981-7.113-6.9981-.998 0-1.928.1526-2.742.4195l-.038-6.3783c0-.2098-.059-.2384-.272-.2384zm9.611 13.5576c0 3.2893-2.286 4.8338-4.757 4.8338-.514 0-.969-.0286-1.386-.1525v-8.657c.475-.1812 1.047-.3337 2.103-.3337 2.384 0 4.04 1.4873 4.04 4.3094z"/><path d="m150.529 46.8943c1.473 0 2.684-.0286 3.101-.124.155-.0286.213-.0858.242-.2097.088-.3242.126-1.0011.126-1.8306 0-2.8221-1.724-6.2639-6.182-6.2639-4.554 0-7.083 3.6516-7.083 7.7703 0 3.6516 1.958 7.4462 7.442 7.4462 2.054 0 3.382-.3241 4.525-.8581.116-.0572.174-.1525.174-.3241v-2.4694c0-.143-.087-.1716-.174-.1144-1.143.4767-2.384.7151-3.74.7151-3.072 0-4.467-1.6685-4.554-3.7374zm-6.123-2.5552c.242-1.4492 1.172-3.0223 3.255-3.0223 2.297 0 2.898 1.8973 2.898 2.7554v.2383c-.126.0286-.514.0286-1.657.0286z"/></g></svg>

<svg width="172" height="86" viewBox="0 0 172 86" fill="none" xmlns="http://www.w3.org/2000/svg">
<path d="M33.8733 26H19V61L33.8733 26Z" fill="#FA0C00"/>
<path d="M44.3379 26H59.1918V61L44.3379 26Z" fill="#FA0C00"/>
<path d="M39.1051 38.8997L48.5717 60.9999H42.3608L39.5315 53.9637H32.6035L39.1051 38.8997Z" fill="#FA0C00"/>
<path d="M83.4558 48.2577L85.2095 53.2059C85.2677 53.3298 85.3549 53.3871 85.5099 53.3871H88.8819C89.066 53.3871 89.095 53.3012 89.066 53.1201L82.0992 34.0803C82.0702 33.9278 82.0411 33.8992 81.8861 33.8992H77.7002C77.5839 33.8992 77.5161 33.985 77.5161 34.1089C77.458 35.11 77.3708 35.4151 77.2448 35.7107L71.0339 53.0915C71.0048 53.3012 71.0726 53.3871 71.247 53.3871H74.2604C74.4446 53.3871 74.5318 53.3298 74.5996 53.1487L76.2565 48.2577H83.4558ZM77.2157 45.0256C78.1265 42.3179 79.328 38.8474 79.8125 36.8643H79.8416C80.4423 38.9428 81.857 43.0615 82.4965 45.0256H77.2157Z" fill="#FA0C00"/>
<path d="M98.0224 53.6826C99.8343 53.6826 101.763 53.3584 103.72 52.5289C103.875 52.4717 103.904 52.405 103.904 52.262C103.846 51.7281 103.778 50.9558 103.778 50.3647V32.4404C103.778 32.326 103.778 32.2688 103.633 32.2688H100.348C100.222 32.2688 100.164 32.326 100.164 32.4786V38.5518C99.6502 38.4946 99.2917 38.466 98.8654 38.466C93.5652 38.466 90.3096 41.9079 90.3096 46.2078C90.3096 51.1942 93.6524 53.6826 98.0224 53.6826ZM100.164 50.3647C99.6211 50.5363 99.0204 50.603 98.41 50.603C96.007 50.603 94.04 49.2683 94.04 46.0266C94.04 43.1568 96.0651 41.4598 98.7491 41.4598C99.2917 41.4598 99.7665 41.517 100.164 41.6695V50.3647Z" fill="#FA0C00"/>
<path d="M114.383 38.4661C109.858 38.4661 107.058 41.8793 107.058 46.0934C107.058 49.8594 109.286 53.6826 114.315 53.6826C118.569 53.6826 121.553 50.6031 121.553 45.9981C121.553 41.9365 119.024 38.4661 114.383 38.4661ZM114.199 41.4598C116.757 41.4598 117.842 43.6241 117.842 46.0934C117.842 49.1444 116.243 50.6603 114.383 50.6603C112.086 50.6603 110.73 48.763 110.73 46.0267C110.73 43.2141 112.174 41.4598 114.199 41.4598Z" fill="#FA0C00"/>
<path d="M124.949 32.2688C124.823 32.2688 124.735 32.326 124.735 32.4786V52.7673C124.735 52.8531 124.823 53.0057 124.949 53.0343C126.392 53.4728 127.904 53.6826 129.464 53.6826C133.931 53.6826 138.272 50.9558 138.272 45.4641C138.272 41.4884 135.5 38.466 131.159 38.466C130.161 38.466 129.231 38.6186 128.417 38.8855L128.379 32.5072C128.379 32.2974 128.32 32.2688 128.107 32.2688H124.949ZM134.56 45.8264C134.56 49.1157 132.274 50.6602 129.803 50.6602C129.289 50.6602 128.834 50.6316 128.417 50.5077V41.8507C128.892 41.6695 129.464 41.517 130.52 41.517C132.904 41.517 134.56 43.0043 134.56 45.8264Z" fill="#FA0C00"/>
<path d="M150.529 46.8943C152.002 46.8943 153.213 46.8657 153.63 46.7703C153.785 46.7417 153.843 46.6845 153.872 46.5606C153.96 46.2364 153.998 45.5595 153.998 44.73C153.998 41.9079 152.274 38.4661 147.816 38.4661C143.262 38.4661 140.733 42.1177 140.733 46.2364C140.733 49.888 142.691 53.6826 148.175 53.6826C150.229 53.6826 151.557 53.3585 152.7 52.8245C152.816 52.7673 152.874 52.672 152.874 52.5004V50.031C152.874 49.888 152.787 49.8594 152.7 49.9166C151.557 50.3933 150.316 50.6317 148.96 50.6317C145.888 50.6317 144.493 48.9632 144.406 46.8943H150.529ZM144.406 44.3391C144.648 42.8899 145.578 41.3168 147.661 41.3168C149.958 41.3168 150.559 43.2141 150.559 44.0722C150.559 44.1008 150.559 44.2247 150.559 44.3105C150.433 44.3391 150.045 44.3391 148.902 44.3391H144.406Z" fill="#FA0C00"/>
</svg>
